icons/svgs/sun-bright-solid.svg

<svg width="24" height="24" viewBox="0 0 24 24" fill="none" xmlns="http://www.w3.org/2000/svg">
<path d="M12 2C12.5078 2 12.9375 2.42969 12.9375 2.9375V5.4375C12.9375 5.98438 12.5078 6.375 12 6.375C11.4531 6.375 11.0625 5.98438 11.0625 5.4375V2.9375C11.0625 2.42969 11.4531 2 12 2ZM12 17.625C12.5078 17.625 12.9375 18.0547 12.9375 18.5625V21.0625C12.9375 21.6094 12.5078 22 12 22C11.4531 22 11.0625 21.6094 11.0625 21.0625V18.5625C11.0625 18.0547 11.4531 17.625 12 17.625ZM21.0625 12.9375H18.5625C18.0156 12.9375 17.625 12.5469 17.625 12C17.625 11.4922 18.0156 11.0625 18.5625 11.0625H21.0625C21.5703 11.0625 22 11.4922 22 12C22 12.5469 21.5703 12.9375 21.0625 12.9375ZM6.375 12C6.375 12.5469 5.94531 12.9375 5.4375 12.9375H2.9375C2.39062 12.9375 2 12.5469 2 12C2 11.4922 2.39062 11.0625 2.9375 11.0625H5.4375C5.94531 11.0625 6.375 11.4922 6.375 12ZM19.0703 6.25781L17.2734 8.05469C16.9219 8.40625 16.3359 8.40625 15.9453 8.05469C15.5938 7.66406 15.5938 7.07812 15.9453 6.72656L17.7422 4.92969C18.0938 4.57812 18.6797 4.57812 19.0703 4.92969C19.4219 5.32031 19.4219 5.90625 19.0703 6.25781ZM8.01562 15.9844C8.36719 16.375 8.36719 16.9609 8.01562 17.3125L6.21875 19.0703C5.86719 19.4609 5.28125 19.4609 4.92969 19.0703C4.53906 18.7188 4.53906 18.1328 4.92969 17.7812L6.6875 15.9844C7.03906 15.6328 7.625 15.6328 8.01562 15.9844ZM17.7422 19.0703L15.9453 17.3125C15.5938 16.9609 15.5938 16.375 15.9453 15.9844C16.3359 15.6328 16.9219 15.6328 17.2734 15.9844L19.0703 17.7812C19.4219 18.1328 19.4219 18.7188 19.0703 19.0703C18.6797 19.4609 18.0938 19.4609 17.7422 19.0703ZM8.01562 8.05469C7.625 8.40625 7.03906 8.40625 6.6875 8.05469L4.92969 6.25781C4.53906 5.90625 4.53906 5.32031 4.92969 4.92969C5.28125 4.57812 5.86719 4.57812 6.21875 4.92969L8.01562 6.72656C8.36719 7.07812 8.36719 7.66406 8.01562 8.05469ZM12 16.375C10.3984 16.375 8.99219 15.5547 8.21094 14.1875C7.39062 12.8594 7.39062 11.1797 8.21094 9.8125C8.99219 8.48438 10.3984 7.625 12 7.625C13.5625 7.625 14.9688 8.48438 15.75 9.8125C16.5703 11.1797 16.5703 12.8594 15.75 14.1875C14.9688 15.5547 13.5625 16.375 12 16.375Z" fill="black"/>
</svg>

<svg xmlns="http://www.w3.org/2000/svg" width="24" height="24" fill="currentColor" class="icon-sun-bright-solid" viewBox="0 0 24 24">
  <mask id="a" width="20" height="20" x="2" y="2" maskUnits="userSpaceOnUse" style="mask-type:alpha">
    <path d="M12 2a.95.95 0 0 1 .938.938v2.5c0 .546-.43.937-.938.937-.547 0-.937-.39-.937-.937v-2.5c0-.508.39-.938.937-.938m0 15.625a.95.95 0 0 1 .938.938v2.5c0 .546-.43.937-.938.937-.547 0-.937-.39-.937-.937v-2.5c0-.508.39-.938.937-.938m9.063-4.687h-2.5c-.547 0-.938-.391-.938-.938 0-.508.39-.937.938-.937h2.5A.95.95 0 0 1 22 12c0 .547-.43.938-.937.938M6.374 12c0 .547-.43.938-.937.938h-2.5C2.39 12.938 2 12.547 2 12c0-.508.39-.937.938-.937h2.5a.95.95 0 0 1 .937.937M19.07 6.258l-1.797 1.797c-.351.351-.937.351-1.328 0-.351-.39-.351-.977 0-1.328l1.797-1.797c.352-.352.938-.352 1.328 0 .352.39.352.976 0 1.328M8.016 15.984c.351.391.351.977 0 1.329L6.219 19.07a.856.856 0 0 1-1.29 0 .856.856 0 0 1 0-1.289l1.758-1.797c.352-.351.938-.351 1.329 0m9.726 3.086-1.797-1.758c-.351-.351-.351-.937 0-1.328.39-.351.977-.351 1.328 0l1.797 1.797a.92.92 0 0 1 0 1.29c-.39.39-.976.39-1.328 0M8.016 8.055c-.391.351-.977.351-1.328 0L4.93 6.258c-.39-.352-.39-.938 0-1.328a.92.92 0 0 1 1.289 0l1.797 1.797c.351.351.351.937 0 1.328M12 16.375c-1.602 0-3.008-.82-3.79-2.187-.82-1.329-.82-3.008 0-4.376.782-1.328 2.188-2.187 3.79-2.187 1.563 0 2.969.86 3.75 2.188.82 1.367.82 3.046 0 4.374A4.29 4.29 0 0 1 12 16.375"/>
  </mask>
  <g mask="url(#a)">
    <path d="M0 0h24v24H0z"/>
  </g>
</svg>
